images/icon/modal.svg

<svg width="25" height="29" viewBox="0 0 25 29" fill="none" xmlns="http://www.w3.org/2000/svg">
<path d="M12.9964 14.4001C9.29944 14.4001 6.29639 11.397 6.29639 7.70003C6.29639 4.00305 9.29944 1 12.9964 1C16.6934 1 19.6964 4.00305 19.6964 7.70003C19.6964 11.397 16.6934 14.4001 12.9964 14.4001Z" stroke="white" stroke-width="1.27059" stroke-miterlimit="10"/>
<path d="M12.9964 11.8719C11.6325 11.8719 10.5198 10.8669 10.5198 9.6346C10.5198 9.35942 10.7471 9.14406 11.0103 9.14406C11.2735 9.14406 11.5009 9.37139 11.5009 9.6346C11.5009 10.3166 12.1709 10.8789 12.9844 10.8789C13.798 10.8789 14.468 10.3285 14.468 9.6346C14.468 8.95263 13.798 8.39031 12.9844 8.39031C11.6205 8.39031 10.5078 7.38531 10.5078 6.15298C10.5078 4.92065 11.6205 3.91565 12.9844 3.91565C14.3484 3.91565 15.461 4.92065 15.461 6.15298C15.461 6.42816 15.2337 6.64352 14.9705 6.64352C14.6953 6.64352 14.48 6.4162 14.48 6.15298C14.48 5.47101 13.81 4.90869 12.9964 4.90869C12.1828 4.90869 11.5128 5.45905 11.5128 6.15298C11.5128 6.83495 12.1828 7.39727 12.9964 7.39727C14.3603 7.39727 15.473 8.40227 15.473 9.6346C15.485 10.8669 14.3723 11.8719 12.9964 11.8719Z" fill="white" stroke="white" stroke-width="0.105882"/>
<path d="M12.9964 4.92077C12.7212 4.92077 12.5059 4.69345 12.5059 4.43023V3.43719C12.5059 3.16201 12.7332 2.94666 12.9964 2.94666C13.2716 2.94666 13.4869 3.17398 13.4869 3.43719V4.43023C13.4989 4.69345 13.2716 4.92077 12.9964 4.92077Z" fill="white" stroke="white" stroke-width="0.105882"/>
<path d="M12.9964 12.8651C12.7212 12.8651 12.5059 12.6378 12.5059 12.3746V11.3696C12.5059 11.0944 12.7332 10.879 12.9964 10.879C13.2716 10.879 13.4869 11.1064 13.4869 11.3696V12.3626C13.4989 12.6378 13.2716 12.8651 12.9964 12.8651Z" fill="white" stroke="white" stroke-width="0.105882"/>
<path d="M12.9962 28.0001C12.7329 28.0001 12.5176 27.7847 12.5176 27.5215V14.8393C12.5176 14.5761 12.7329 14.3607 12.9962 14.3607C13.2594 14.3607 13.4747 14.5761 13.4747 14.8393V27.5215C13.4747 27.7847 13.2594 28.0001 12.9962 28.0001Z" fill="white" stroke="white" stroke-width="0.158824"/>
<path d="M12.9967 28C12.9489 28 12.901 27.9881 12.8651 27.9761C9.6228 26.66 6.99065 24.3988 5.23189 21.4316C5.13617 21.2641 5.18403 21.0487 5.35153 20.9411C5.51903 20.8453 5.73439 20.8932 5.84207 21.0607C7.49315 23.8484 9.96977 25.99 12.9967 27.2582C16.0237 25.99 18.5003 23.8604 20.1514 21.0607C20.2471 20.8932 20.4745 20.8334 20.642 20.9411C20.8095 21.0368 20.8693 21.2641 20.7616 21.4316C19.0028 24.3988 16.3587 26.66 13.1284 27.9761C13.0925 27.9881 13.0446 28 12.9967 28Z" fill="white" stroke="white" stroke-width="0.423529"/>
<path d="M17.5552 26.9352C16.8972 26.9352 16.1913 26.8395 15.4615 26.672C15.3179 26.6361 15.2102 26.5165 15.1863 26.3729C14.5881 21.3837 16.8733 20.1275 18.8952 19.0148C20.1754 18.3089 21.2761 17.7107 21.5274 16.2152C21.5513 16.0596 21.6829 15.94 21.8504 15.916C22.006 15.9041 22.1615 15.9998 22.2213 16.1434C22.2452 16.2271 22.9511 18.1893 22.9511 21.2402C22.9511 22.8554 22.4726 24.2552 21.5752 25.2722C20.6181 26.3609 19.2302 26.9352 17.5552 26.9352ZM15.8683 26.0379C16.4545 26.1695 17.0288 26.2293 17.5552 26.2293C21.0129 26.2293 22.2452 23.657 22.2452 21.2521C22.2452 19.637 22.0419 18.3328 21.8504 17.4834C21.2761 18.5243 20.2472 19.0866 19.2542 19.637C17.3758 20.6659 15.4375 21.7307 15.8683 26.0379Z" fill="white" stroke="white" stroke-width="0.317647"/>
<path d="M8.43791 26.9352C6.77486 26.9352 5.37504 26.3609 4.41789 25.2721C3.52057 24.2551 3.04199 22.8673 3.04199 21.2401C3.04199 18.1892 3.74789 16.2271 3.77182 16.1433C3.83164 15.9878 3.97521 15.8921 4.14271 15.916C4.29825 15.928 4.42985 16.0476 4.46575 16.2151C4.717 17.7107 5.81772 18.3089 7.0979 19.0148C9.11987 20.1275 11.4051 21.3837 10.8068 26.3728C10.7949 26.5164 10.6872 26.6361 10.5317 26.6719C9.80184 26.8514 9.09595 26.9352 8.43791 26.9352ZM4.15468 17.4714C3.96325 18.3208 3.75985 19.6249 3.75985 21.2401C3.75985 23.645 4.99218 26.2173 8.44987 26.2173C8.9763 26.2173 9.53863 26.1575 10.1368 26.0259C10.5795 21.7187 8.6413 20.6539 6.7629 19.6249C5.7579 19.0866 4.72896 18.5123 4.15468 17.4714Z" fill="white" stroke="white" stroke-width="0.317647"/>
<path d="M4.90166 3.7958C4.81791 3.7958 4.73416 3.77187 4.66237 3.73598L2.99933 2.77883C2.77201 2.64722 2.68826 2.36008 2.81987 2.12079C2.95147 1.89347 3.23862 1.80972 3.47791 1.94133L5.14095 2.89847C5.36827 3.03008 5.45202 3.31723 5.32041 3.55651C5.2247 3.71205 5.06916 3.7958 4.90166 3.7958Z" fill="white" stroke="white" stroke-width="0.127059"/>
<path d="M1.47857 8.10912C1.21536 8.10912 1 7.89377 1 7.63055C1 7.36734 1.21536 7.15198 1.47857 7.15198H3.39287C3.65608 7.15198 3.87144 7.36734 3.87144 7.63055C3.87144 7.89377 3.65608 8.10912 3.39287 8.10912H1.47857Z" fill="white" stroke="white" stroke-width="0.127059"/>
<path d="M3.24122 13.8223C3.07371 13.8223 2.91818 13.7386 2.82246 13.583C2.69086 13.3557 2.76264 13.0566 3.00193 12.925L4.66497 11.9678C4.89229 11.8362 5.1914 11.908 5.32301 12.1473C5.45462 12.3746 5.38283 12.6737 5.14354 12.8054L3.4805 13.7625C3.39675 13.7984 3.313 13.8223 3.24122 13.8223Z" fill="white" stroke="white" stroke-width="0.127059"/>
<path d="M20.82 3.7958C20.9038 3.7958 20.9875 3.77187 21.0593 3.73598L22.7223 2.77883C22.9497 2.64722 23.0334 2.36008 22.9018 2.12079C22.7702 1.89347 22.4831 1.80972 22.2438 1.94133L20.5807 2.89847C20.3534 3.03008 20.2697 3.31723 20.4013 3.55651C20.497 3.71205 20.6525 3.7958 20.82 3.7958Z" fill="white" stroke="white" stroke-width="0.127059"/>
<path d="M24.2436 8.10912C24.5068 8.10912 24.7222 7.89377 24.7222 7.63055C24.7222 7.36734 24.5068 7.15198 24.2436 7.15198H22.3293C22.0661 7.15198 21.8507 7.36734 21.8507 7.63055C21.8507 7.89377 22.0661 8.10912 22.3293 8.10912H24.2436Z" fill="white" stroke="white" stroke-width="0.127059"/>
<path d="M22.4805 13.8222C22.648 13.8222 22.8035 13.7384 22.8992 13.5829C23.0308 13.3556 22.959 13.0565 22.7198 12.9249L21.0567 11.9677C20.8294 11.8361 20.5303 11.9079 20.3987 12.1472C20.2671 12.3745 20.3388 12.6736 20.5781 12.8052L22.2412 13.7624C22.3249 13.7983 22.4087 13.8222 22.4805 13.8222Z" fill="white" stroke="white" stroke-width="0.127059"/>
</svg>

<svg width="25" height="29" fill="none" xmlns="http://www.w3.org/2000/svg"><path d="M12.996 14.4a6.704 6.704 0 01-6.7-6.7c0-3.697 3.003-6.7 6.7-6.7s6.7 3.003 6.7 6.7-3.003 6.7-6.7 6.7z" stroke="#fff" stroke-width="1.271" stroke-miterlimit="10"/><path d="M12.996 11.872c-1.364 0-2.476-1.005-2.476-2.237 0-.276.227-.49.49-.49a.5.5 0 01.49.49c0 .682.67 1.244 1.484 1.244s1.484-.55 1.484-1.244c0-.682-.67-1.245-1.484-1.245-1.364 0-2.476-1.005-2.476-2.237 0-1.232 1.113-2.237 2.476-2.237 1.364 0 2.477 1.005 2.477 2.237 0 .275-.227.49-.49.49a.493.493 0 01-.491-.49c0-.682-.67-1.244-1.484-1.244-.813 0-1.483.55-1.483 1.244 0 .682.67 1.244 1.483 1.244 1.364 0 2.477 1.005 2.477 2.238.012 1.232-1.1 2.237-2.477 2.237z" fill="#fff" stroke="#fff" stroke-width=".106"/><path d="M12.996 4.92a.493.493 0 01-.49-.49v-.993c0-.275.227-.49.49-.49.276 0 .49.227.49.49v.993a.485.485 0 01-.49.49zm0 7.945a.493.493 0 01-.49-.49V11.37c0-.276.227-.491.49-.491.276 0 .49.227.49.49v.994a.488.488 0 01-.49.502z" fill="#fff" stroke="#fff" stroke-width=".106"/><path d="M12.996 28a.48.48 0 01-.478-.479V14.84a.48.48 0 01.478-.478.48.48 0 01.479.478v12.682a.48.48 0 01-.479.48z" fill="#fff" stroke="#fff" stroke-width=".159"/><path d="M12.997 28a.43.43 0 01-.132-.024C9.623 26.66 6.991 24.4 5.232 21.432a.365.365 0 01.12-.49.365.365 0 01.49.119c1.651 2.787 4.128 4.929 7.155 6.197 3.027-1.268 5.503-3.398 7.154-6.197a.352.352 0 01.491-.12.352.352 0 01.12.49c-1.76 2.968-4.403 5.229-7.634 6.545a.43.43 0 01-.131.024z" fill="#fff" stroke="#fff" stroke-width=".424"/><path d="M17.555 26.935a9.46 9.46 0 01-2.094-.263.372.372 0 01-.275-.3c-.598-4.988 1.687-6.244 3.71-7.357 1.28-.706 2.38-1.304 2.631-2.8a.37.37 0 01.323-.299.38.38 0 01.371.227c.024.084.73 2.046.73 5.097 0 1.615-.478 3.015-1.376 4.032-.957 1.089-2.345 1.663-4.02 1.663zm-1.687-.897c.586.131 1.16.191 1.687.191 3.458 0 4.69-2.572 4.69-4.977 0-1.615-.203-2.92-.395-3.769-.574 1.041-1.603 1.604-2.596 2.154-1.878 1.029-3.817 2.094-3.386 6.4zm-7.43.897c-1.663 0-3.063-.574-4.02-1.663-.897-1.017-1.376-2.405-1.376-4.032 0-3.05.706-5.013.73-5.097a.34.34 0 01.37-.227.367.367 0 01.324.3c.251 1.495 1.352 2.093 2.632 2.799 2.022 1.113 4.307 2.369 3.709 7.358a.341.341 0 01-.275.299c-.73.18-1.436.263-2.094.263zm-4.283-9.464a17.36 17.36 0 00-.395 3.77c0 2.404 1.232 4.976 4.69 4.976.526 0 1.089-.06 1.687-.191.442-4.307-1.496-5.372-3.374-6.401-1.005-.538-2.034-1.113-2.608-2.154z" fill="#fff" stroke="#fff" stroke-width=".318"/><path d="M4.902 3.796a.545.545 0 01-.24-.06L3 2.779a.484.484 0 01-.18-.658.484.484 0 01.659-.18l1.663.957a.484.484 0 01.18.659.486.486 0 01-.42.239zM1.479 8.11A.48.48 0 011 7.63a.48.48 0 01.479-.478h1.914a.48.48 0 01.478.479.48.48 0 01-.478.478H1.479zm1.762 5.712a.486.486 0 01-.419-.239.477.477 0 01.18-.658l1.663-.957a.477.477 0 01.658.18.477.477 0 01-.18.657l-1.662.957a.639.639 0 01-.24.06zM20.82 3.796a.545.545 0 00.24-.06l1.662-.957a.484.484 0 00.18-.658.484.484 0 00-.658-.18l-1.663.957a.484.484 0 00-.18.659.488.488 0 00.419.239zm3.424 4.314a.48.48 0 00.478-.48.48.48 0 00-.478-.478h-1.915a.48.48 0 00-.478.479.48.48 0 00.478.478h1.915zm-1.764 5.712a.486.486 0 00.42-.24.477.477 0 00-.18-.657l-1.663-.957a.477.477 0 00-.658.18.477.477 0 00.18.657l1.662.957a.64.64 0 00.24.06z" fill="#fff" stroke="#fff" stroke-width=".127"/></svg>
